assets/icons/call.svg

<svg width="24" height="25" viewBox="0 0 24 25" fill="none" xmlns="http://www.w3.org/2000/svg">
<path d="M1.25 7.17761C1.25 6.40991 1.38617 5.66608 1.66309 4.97253H1.66211C1.94316 4.25838 2.38423 3.61106 2.9834 3.04285L3.12695 2.90808C3.84786 2.25178 4.67883 1.88761 5.58984 1.88757C5.97487 1.88757 6.36692 1.96979 6.72461 2.14148L6.72363 2.14246C7.0886 2.31279 7.42132 2.57168 7.68066 2.94324H7.68164L9.99805 6.20886H9.99902C10.2062 6.49656 10.3678 6.77834 10.4844 7.06335H10.4834C10.6001 7.33878 10.6797 7.64627 10.6797 7.95789C10.6796 8.34066 10.5684 8.70602 10.3721 9.03601L10.373 9.03699C10.2012 9.34101 9.96434 9.63417 9.69043 9.90808L9.68945 9.9071L9.00684 10.618C9.01208 10.6304 9.01711 10.6468 9.02441 10.6649C9.17245 10.9288 9.44019 11.3055 9.85254 11.7928H9.85156C10.2925 12.3022 10.7609 12.8175 11.2656 13.3319H11.2646C11.7948 13.852 12.2976 14.3241 12.8047 14.7548L13.1562 15.0419C13.4809 15.2955 13.7449 15.4686 13.9492 15.578C13.9645 15.5847 13.9791 15.59 13.9912 15.5956L14.6797 14.9169L14.8936 14.7137C15.0984 14.5301 15.3145 14.3703 15.54 14.2469L15.666 14.1747C15.964 14.0167 16.2864 13.9277 16.6396 13.9276C16.9396 13.9276 17.2364 13.9914 17.5342 14.1132C17.7463 14.1999 17.9548 14.3115 18.1631 14.4413L18.3721 14.577L18.3779 14.5819L18.3838 14.5858L21.6865 16.9305L21.8174 17.0262C22.0699 17.2239 22.277 17.4601 22.4268 17.7411L22.4961 17.8856L22.502 17.8973L22.5068 17.9091C22.6342 18.2275 22.7197 18.5728 22.7197 18.9677C22.7197 19.4401 22.6149 19.9193 22.3984 20.3778C22.1987 20.8008 21.938 21.2032 21.5957 21.5809V21.5819C21.0397 22.1947 20.4096 22.6549 19.6846 22.952L19.6836 22.951C18.9901 23.2393 18.2436 23.3875 17.4502 23.3876C16.3117 23.3876 15.1216 23.1195 13.8965 22.5975C12.689 22.0831 11.4895 21.3938 10.3086 20.5341L10.3076 20.5331C9.12673 19.6705 8.00837 18.7158 6.94238 17.66L6.9375 17.6552C5.88189 16.5893 4.92634 15.4704 4.07324 14.2987L4.07129 14.2958C3.22492 13.1191 2.5347 11.9309 2.0293 10.7411L2.02832 10.7382C1.5169 9.52337 1.25001 8.33443 1.25 7.17761ZM2.75 7.17761C2.75001 8.09991 2.96243 9.09009 3.41016 10.1542L3.58887 10.5565C4.02436 11.4964 4.59291 12.4517 5.28613 13.4159L5.59375 13.83C6.31987 14.7875 7.12128 15.7089 7.99805 16.5946L8.37988 16.9667C9.27742 17.8237 10.2125 18.6061 11.1914 19.3212L11.6035 19.6132C12.5656 20.2764 13.5283 20.8103 14.4844 21.2177C15.5589 21.6755 16.5489 21.8876 17.4502 21.8876C18.0548 21.8875 18.6063 21.7757 19.1113 21.5653L19.1152 21.5634L19.2988 21.4823C19.6619 21.3079 20.0011 21.0653 20.3242 20.7421L20.4844 20.5731C20.7218 20.3111 20.9018 20.034 21.042 19.7372C21.1654 19.4758 21.2197 19.2151 21.2197 18.9677C21.2197 18.8076 21.1872 18.6576 21.1191 18.4833C21.0724 18.3804 20.9929 18.2746 20.833 18.1639L20.8262 18.1591L17.5283 15.8182L17.3691 15.7137C17.2165 15.6186 17.0837 15.55 16.9658 15.5018C16.8236 15.4437 16.7197 15.4276 16.6396 15.4276C16.5436 15.4277 16.4472 15.451 16.3203 15.5282L16.2988 15.5409L16.2773 15.5526C16.1393 15.6246 15.9598 15.7579 15.7402 15.9774L15.7373 15.9813L15.21 15.4471L15.7363 15.9813L14.9766 16.7313C14.7341 16.9721 14.4177 17.118 14.04 17.118C13.8919 17.118 13.716 17.1013 13.5264 17.0302L13.5107 17.0233L13.4941 17.0165C13.449 16.9971 13.4071 16.9782 13.3799 16.9657C13.3475 16.9509 13.3362 16.9463 13.3311 16.9442L13.2939 16.9296L13.2588 16.91C12.8535 16.6954 12.3778 16.3588 11.8359 15.9003L11.835 15.8993C11.2855 15.4327 10.7511 14.9284 10.2051 14.3925L10.1992 14.3876L10.1943 14.3827C9.66103 13.8391 9.17045 13.2972 8.71289 12.7684L8.70703 12.7616C8.25395 12.2261 7.90679 11.7512 7.69141 11.3563L7.65918 11.2977L7.63867 11.2352C7.63866 11.2352 7.63604 11.2279 7.62305 11.1971C7.61102 11.1687 7.58888 11.1187 7.56738 11.0614L7.55273 11.0214L7.54199 10.9794C7.50971 10.8502 7.49023 10.7182 7.49023 10.5673C7.49031 10.2299 7.60431 9.90774 7.85938 9.64734L8.61914 8.8573L8.625 8.85242L8.62988 8.84753C8.8359 8.64152 8.97927 8.4546 9.06738 8.29871L9.0791 8.27722C9.15472 8.15293 9.17963 8.04681 9.17969 7.95789C9.17969 7.89369 9.16124 7.78505 9.10059 7.64343L9.0957 7.63171C9.03232 7.47678 8.93408 7.29808 8.78125 7.08582L8.77832 7.08191L6.45801 3.8114L6.45312 3.80457C6.35566 3.6638 6.23435 3.56746 6.08594 3.4989L6.0752 3.49402C5.9329 3.42574 5.76478 3.38757 5.58984 3.38757C5.08176 3.38762 4.56287 3.59367 4.03613 4.11218L4.03027 4.11804L4.02441 4.12292C3.56968 4.55193 3.25475 5.02131 3.05762 5.52234L3.05664 5.52625C2.85443 6.03178 2.75 6.5865 2.75 7.17761Z" fill="#111111"/>
<path d="M17.75 9.63757C17.75 9.50745 17.6901 9.25124 17.5107 8.90222C17.339 8.56814 17.0866 8.20691 16.7812 7.87976L16.7803 7.87781C16.2029 7.2553 15.5379 6.88757 15 6.88757C14.5858 6.88757 14.25 6.55179 14.25 6.13757C14.25 5.72336 14.5858 5.38757 15 5.38757C16.141 5.38757 17.1754 6.09866 17.8779 6.85535L18.1621 7.18152C18.4335 7.5149 18.666 7.86813 18.8447 8.2157C19.0752 8.66393 19.25 9.16776 19.25 9.63757C19.25 10.0518 18.9142 10.3876 18.5 10.3876C18.0858 10.3876 17.75 10.0518 17.75 9.63757Z" fill="#111111"/>
<path d="M21.25 9.63757C21.25 6.18179 18.4558 3.38757 15 3.38757C14.5858 3.38757 14.25 3.05179 14.25 2.63757C14.25 2.22336 14.5858 1.88757 15 1.88757C19.2842 1.88757 22.75 5.35336 22.75 9.63757C22.75 10.0518 22.4142 10.3876 22 10.3876C21.5858 10.3876 21.25 10.0518 21.25 9.63757Z" fill="#111111"/>
</svg>

<svg xmlns="http://www.w3.org/2000/svg" width="24" height="25" fill="none" viewBox="0 0 24 25"><path fill="#111" d="M1.25 7.178c0-.768.136-1.512.413-2.205a5.35 5.35 0 0 1 1.32-1.93l.144-.135c.72-.656 1.552-1.02 2.463-1.02.385 0 .777.082 1.135.253l-.001.001c.365.17.697.43.957.801L9.999 6.21H10q.31.43.485.854c.116.276.196.583.196.895a2.1 2.1 0 0 1-.308 1.078l.001.001a4 4 0 0 1-.683.871l-.683.71.017.047c.148.264.416.64.829 1.128h-.001q.658.767 1.414 1.539h-.001c.53.52 1.033.992 1.54 1.423l.351.287c.325.254.589.427.793.536l.042.018.689-.68.214-.202a3.4 3.4 0 0 1 .646-.467l.126-.072a2.05 2.05 0 0 1 .974-.247q.449.001.894.185.317.132.63.328l.208.136.006.005.006.004 3.302 2.344.131.096c.253.198.46.434.61.715l.07.145.005.011.005.012a2.8 2.8 0 0 1 .213 1.059c0 .472-.105.951-.322 1.41-.2.423-.46.825-.802 1.203-.556.614-1.186 1.074-1.911 1.371l-.001-.001a5.8 5.8 0 0 1-2.234.437c-1.138 0-2.328-.269-3.553-.79a18.3 18.3 0 0 1-3.588-2.064h-.001a29.5 29.5 0 0 1-3.366-2.874l-.005-.005A29 29 0 0 1 4.074 14.3l-.002-.003c-.846-1.177-1.536-2.365-2.042-3.555v-.003c-.512-1.215-.779-2.404-.779-3.56m1.5 0c0 .922.212 1.912.66 2.976l.179.402c.435.94 1.004 1.896 1.697 2.86l.308.414a28 28 0 0 0 2.404 2.765l.382.372q1.344 1.284 2.811 2.354l.412.292a16.5 16.5 0 0 0 2.881 1.605c1.075.457 2.065.67 2.966.67.605 0 1.156-.112 1.661-.323l.004-.002.184-.08a3.7 3.7 0 0 0 1.025-.74l.16-.17c.238-.262.418-.539.558-.836a1.8 1.8 0 0 0 .178-.77c0-.16-.033-.31-.1-.484a.77.77 0 0 0-.287-.32l-.007-.004-3.298-2.34-.159-.105a3 3 0 0 0-.403-.212.9.9 0 0 0-.326-.074.6.6 0 0 0-.32.1l-.021.013-.022.012a2.4 2.4 0 0 0-.537.424l-.003.004-.527-.534.526.534-.76.75a1.3 1.3 0 0 1-.936.387c-.148 0-.324-.017-.514-.088l-.015-.007-.017-.006-.114-.051-.049-.022-.037-.014-.035-.02q-.609-.322-1.423-1.01h-.001a31 31 0 0 1-1.63-1.508l-.006-.004-.005-.005a35 35 0 0 1-1.481-1.615l-.006-.006c-.453-.536-.8-1.01-1.016-1.406l-.032-.058-.02-.063-.016-.038c-.012-.028-.034-.078-.056-.136l-.014-.04-.011-.042a1.7 1.7 0 0 1-.052-.412c0-.337.114-.66.37-.92l.76-.79.005-.005.005-.004c.206-.206.35-.393.437-.55l.012-.02a.6.6 0 0 0 .1-.32.9.9 0 0 0-.078-.315l-.005-.011a2.7 2.7 0 0 0-.315-.546l-.003-.004-2.32-3.27-.005-.007a.9.9 0 0 0-.367-.306l-.01-.005a1.1 1.1 0 0 0-.486-.106c-.508 0-1.027.206-1.554.724l-.006.006-.006.005c-.454.429-.77.898-.966 1.4l-.001.003a4.4 4.4 0 0 0-.307 1.652M17.75 9.638c0-.13-.06-.387-.24-.736a4.7 4.7 0 0 0-.729-1.022v-.002c-.578-.623-1.243-.99-1.781-.99a.75.75 0 0 1 0-1.5c1.141 0 2.175.71 2.878 1.467l.284.327c.271.333.504.686.683 1.034.23.448.405.952.405 1.422a.75.75 0 1 1-1.5 0m3.5 0A6.245 6.245 0 0 0 15 3.388a.75.75 0 0 1 0-1.5 7.745 7.745 0 0 1 7.75 7.75.75.75 0 1 1-1.5 0"/></svg>
